docs/patterns/_images/category/management-monitoring.svg

<?xml version="1.0" encoding="UTF-8" standalone="no"?>
<!-- Created with Inkscape (http://www.inkscape.org/) -->

<svg
   xmlns:dc="http://purl.org/dc/elements/1.1/"
   xmlns:cc="http://creativecommons.org/ns#"
   xmlns:rdf="http://www.w3.org/1999/02/22-rdf-syntax-ns#"
   xmlns:svg="http://www.w3.org/2000/svg"
   xmlns="http://www.w3.org/2000/svg"
   xmlns:sodipodi="http://sodipodi.sourceforge.net/DTD/sodipodi-0.dtd"
   xmlns:inkscape="http://www.inkscape.org/namespaces/inkscape"
   viewBox="0 0 64 64"
   id="svg5576"
   version="1.1"
   inkscape:version="0.91 r13725"
   sodipodi:docname="management-monitoring.svg"
   width="64"
   height="64">
  <title
     id="title5586">Management and monitoring</title>
  <defs
     id="defs5578" />
  <sodipodi:namedview
     id="base"
     pagecolor="#ffffff"
     bordercolor="#666666"
     borderopacity="1.0"
     inkscape:pageopacity="0.0"
     inkscape:pageshadow="2"
     inkscape:zoom="2"
     inkscape:cx="-26.739276"
     inkscape:cy="61.258905"
     inkscape:document-units="px"
     inkscape:current-layer="layer1"
     showgrid="false"
     units="px"
     inkscape:window-width="1536"
     inkscape:window-height="897"
     inkscape:window-x="-8"
     inkscape:window-y="-8"
     inkscape:window-maximized="1"
     inkscape:object-nodes="true" />
  <metadata
     id="metadata5581">
    <rdf:RDF>
      <cc:Work
         rdf:about="">
        <dc:format>image/svg+xml</dc:format>
        <dc:type
           rdf:resource="http://purl.org/dc/dcmitype/StillImage" />
        <dc:title>Management and monitoring</dc:title>
        <dc:creator>
          <cc:Agent>
            <dc:title>patterns &amp; practices</dc:title>
          </cc:Agent>
        </dc:creator>
      </cc:Work>
    </rdf:RDF>
  </metadata>
  <g
     inkscape:label="Layer 1"
     inkscape:groupmode="layer"
     id="layer1"
     transform="translate(0,-988.36216)">
    <g
       id="g4146"
       transform="matrix(0.27315601,0,0,0.27315601,-5.2275564,766.13136)">
      <path
         inkscape:connector-curvature="0"
         id="meter"
         transform="translate(0,796.36216)"
         d="m 176.42383,48.097656 c -19.95565,0 -37.89798,8.910312 -49.83789,22.908203 3.56985,3.202559 6.98582,7.013552 10.24023,11.310547 9.05664,-11.572381 23.36369,-19.044922 39.59766,-19.044922 27.66107,0 49.74805,21.68001 49.74805,48.406246 0,26.72624 -22.08698,48.40821 -49.74805,48.40821 -1.90625,0 -3.78294,-0.112 -5.63086,-0.3125 1.41234,5.27413 2.68199,10.45298 3.77734,15.43945 0.61751,0.0172 1.232,0.0469 1.85352,0.0469 35.66971,0 64.92187,-28.45892 64.92187,-63.58204 0,-35.123116 -29.25216,-63.580074 -64.92187,-63.580074 z"
         style="color:#000000;font-style:normal;font-variant:normal;font-weight:normal;font-stretch:normal;font-size:medium;line-height:normal;font-family:sans-serif;text-indent:0;text-align:start;text-decoration:none;text-decoration-line:none;text-decoration-style:solid;text-decoration-color:#000000;letter-spacing:normal;word-spacing:normal;text-transform:none;direction:ltr;block-progression:tb;writing-mode:lr-tb;baseline-shift:baseline;text-anchor:start;white-space:normal;clip-rule:nonzero;display:inline;overflow:visible;visibility:visible;opacity:1;isolation:auto;mix-blend-mode:normal;color-interpolation:sRGB;color-interpolation-filters:linearRGB;solid-color:#000000;solid-opacity:1;fill:#000000;fill-opacity:1;fill-rule:nonzero;stroke:none;stroke-width:15.17367077;stroke-linecap:butt;stroke-linejoin:miter;stroke-miterlimit:4;stroke-dasharray:none;stroke-dashoffset:0;stroke-opacity:1;color-rendering:auto;image-rendering:auto;shape-rendering:auto;text-rendering:auto;enable-background:accumulate" />
      <g
         transform="translate(-0.70711056,-3.8890873)"
         id="person">
        <g
           id="g4232">
          <ellipse
             ry="37.5"
             rx="34.25"
             cy="908.36218"
             cx="101.25"
             id="path4146"
             style="fill:#0072c6;fill-opacity:1;stroke:none;stroke-width:16;stroke-miterlimit:4;stroke-dasharray:none;stroke-opacity:1" />
          <path
             sodipodi:nodetypes="cczzzc"
             inkscape:connector-curvature="0"
             id="path4148"
             d="m 32,1020.8622 141.5,-0.2929 c 0,0 -3.04648,-62.55382 -27.35355,-68.85359 -24.30708,-6.29976 -33.43472,12.2929 -44.73224,12.2929 -11.297515,0 -21.750246,-22.90204 -46.803297,-11.91422 C 29.557861,963.08222 32,1020.8622 32,1020.8622 Z"
             style="fill:#0072c6;fill-opacity:1;fill-rule:evenodd;stroke:none;stroke-width:1px;stroke-linecap:butt;stroke-linejoin:miter;stroke-opacity:1" />
        </g>
      </g>
      <g
         transform="translate(0.70710678,-2.1213203)"
         id="g4224">
        <g
           id="g4218">
          <path
             inkscape:connector-curvature="0"
             id="path4150-3"
             transform="translate(0,796.36216)"
             d="m 178.54492,75.087891 0,16.152343 c 4.02872,0.748503 7.66077,2.477857 10.64258,4.917969 l 11.2793,-11.28125 c -5.96457,-5.302173 -13.56979,-8.837335 -21.92188,-9.789062 z"
             style="color:#000000;font-style:normal;font-variant:normal;font-weight:normal;font-stretch:normal;font-size:medium;line-height:normal;font-family:sans-serif;text-indent:0;text-align:start;text-decoration:none;text-decoration-line:none;text-decoration-style:solid;text-decoration-color:#000000;letter-spacing:normal;word-spacing:normal;text-transform:none;direction:ltr;block-progression:tb;writing-mode:lr-tb;baseline-shift:baseline;text-anchor:start;white-space:normal;clip-rule:nonzero;display:inline;overflow:visible;visibility:visible;opacity:1;isolation:auto;mix-blend-mode:normal;color-interpolation:sRGB;color-interpolation-filters:linearRGB;solid-color:#000000;solid-opacity:1;fill:#000000;fill-opacity:1;fill-rule:nonzero;stroke:none;stroke-width:16;stroke-linecap:butt;stroke-linejoin:miter;stroke-miterlimit:4;stroke-dasharray:none;stroke-dashoffset:0;stroke-opacity:1;color-rendering:auto;image-rendering:auto;shape-rendering:auto;text-rendering:auto;enable-background:accumulate" />
          <path
             inkscape:transform-center-y="-1.0788266"
             inkscape:transform-center-x="0.8904577"
             id="path4150-3-6"
             d="m 150.78315,882.07238 12.12989,10.66602 c 3.22243,-2.53118 6.91949,-4.11677 10.72094,-4.74471 l -1.0237,-15.91984 c -7.92039,0.97797 -15.59721,4.35484 -21.82713,9.99853 z"
             style="color:#000000;font-style:normal;font-variant:normal;font-weight:normal;font-stretch:normal;font-size:medium;line-height:normal;font-family:sans-serif;text-indent:0;text-align:start;text-decoration:none;text-decoration-line:none;text-decoration-style:solid;text-decoration-color:#000000;letter-spacing:normal;word-spacing:normal;text-transform:none;direction:ltr;block-progression:tb;writing-mode:lr-tb;baseline-shift:baseline;text-anchor:start;white-space:normal;clip-rule:nonzero;display:inline;overflow:visible;visibility:visible;opacity:1;isolation:auto;mix-blend-mode:normal;color-interpolation:sRGB;color-interpolation-filters:linearRGB;solid-color:#000000;solid-opacity:1;fill:#000000;fill-opacity:1;fill-rule:nonzero;stroke:none;stroke-width:16;stroke-linecap:butt;stroke-linejoin:miter;stroke-miterlimit:4;stroke-dasharray:none;stroke-dashoffset:0;stroke-opacity:1;color-rendering:auto;image-rendering:auto;shape-rendering:auto;text-rendering:auto;enable-background:accumulate"
             inkscape:connector-curvature="0" />
          <path
             id="path4150-3-5"
             d="M 204.71449,885.13921 193.17956,896.446 c 2.2856,3.40101 3.59309,7.20534 3.93781,11.04285 l 15.95194,0.15795 c -0.3888,-7.97107 -3.18794,-15.87686 -8.35482,-22.50759 z"
             style="color:#000000;font-style:normal;font-variant:normal;font-weight:normal;font-stretch:normal;font-size:medium;line-height:normal;font-family:sans-serif;text-indent:0;text-align:start;text-decoration:none;text-decoration-line:none;text-decoration-style:solid;text-decoration-color:#000000;letter-spacing:normal;word-spacing:normal;text-transform:none;direction:ltr;block-progression:tb;writing-mode:lr-tb;baseline-shift:baseline;text-anchor:start;white-space:normal;clip-rule:nonzero;display:inline;overflow:visible;visibility:visible;opacity:1;isolation:auto;mix-blend-mode:normal;color-interpolation:sRGB;color-interpolation-filters:linearRGB;solid-color:#000000;solid-opacity:1;fill:#000000;fill-opacity:1;fill-rule:nonzero;stroke:none;stroke-width:16;stroke-linecap:butt;stroke-linejoin:miter;stroke-miterlimit:4;stroke-dasharray:none;stroke-dashoffset:0;stroke-opacity:1;color-rendering:auto;image-rendering:auto;shape-rendering:auto;text-rendering:auto;enable-background:accumulate"
             inkscape:connector-curvature="0" />
          <path
             inkscape:transform-center-y="-3.5404416"
             inkscape:transform-center-x="-0.4655823"
             id="path4150-3-6-2"
             d="m 138.49598,911.00472 16.1188,-1.04045 c 0.48744,-4.06858 1.97924,-7.80447 4.22221,-10.93726 l -11.98438,-10.52919 c -4.90695,6.29371 -7.94488,14.11086 -8.35663,22.5069 z"
             style="color:#000000;font-style:normal;font-variant:normal;font-weight:normal;font-stretch:normal;font-size:medium;line-height:normal;font-family:sans-serif;text-indent:0;text-align:start;text-decoration:none;text-decoration-line:none;text-decoration-style:solid;text-decoration-color:#000000;letter-spacing:normal;word-spacing:normal;text-transform:none;direction:ltr;block-progression:tb;writing-mode:lr-tb;baseline-shift:baseline;text-anchor:start;white-space:normal;clip-rule:nonzero;display:inline;overflow:visible;visibility:visible;opacity:1;isolation:auto;mix-blend-mode:normal;color-interpolation:sRGB;color-interpolation-filters:linearRGB;solid-color:#000000;solid-opacity:1;fill:#000000;fill-opacity:1;fill-rule:nonzero;stroke:none;stroke-width:16;stroke-linecap:butt;stroke-linejoin:miter;stroke-miterlimit:4;stroke-dasharray:none;stroke-dashoffset:0;stroke-opacity:1;color-rendering:auto;image-rendering:auto;shape-rendering:auto;text-rendering:auto;enable-background:accumulate"
             inkscape:connector-curvature="0" />
        </g>
        <path
           style="fill:#000000;fill-opacity:1;stroke:none;stroke-width:16;stroke-miterlimit:4;stroke-dasharray:none;stroke-opacity:1"
           d="m 176.47825,905.10811 a 10.429825,10.429825 0 0 0 -10.42968,10.42968 10.429825,10.429825 0 0 0 10.42968,10.42969 10.429825,10.429825 0 0 0 9.92774,-7.24805 l 22.42187,0 0,-6.36523 -22.42968,0 a 10.429825,10.429825 0 0 0 -9.91993,-7.24609 z"
           id="path4213"
           inkscape:connector-curvature="0" />
      </g>
    </g>
  </g>
</svg>

<?xml version="1.0" encoding="UTF-8" standalone="no"?>
<!-- Created with Inkscape (http://www.inkscape.org/) -->

<svg
   xmlns:dc="http://purl.org/dc/elements/1.1/"
   xmlns:cc="http://creativecommons.org/ns#"
   xmlns:rdf="http://www.w3.org/1999/02/22-rdf-syntax-ns#"
   xmlns:svg="http://www.w3.org/2000/svg"
   xmlns="http://www.w3.org/2000/svg"
   xmlns:sodipodi="http://sodipodi.sourceforge.net/DTD/sodipodi-0.dtd"
   xmlns:inkscape="http://www.inkscape.org/namespaces/inkscape"
   viewBox="0 0 256 256"
   id="svg5576"
   version="1.1"
   inkscape:version="0.91 r13725"
   sodipodi:docname="management-monitoring.svg">
  <title
     id="title5586">Management and monitoring</title>
  <defs
     id="defs5578" />
  <sodipodi:namedview
     id="base"
     pagecolor="#ffffff"
     bordercolor="#666666"
     borderopacity="1.0"
     inkscape:pageopacity="0.0"
     inkscape:pageshadow="2"
     inkscape:zoom="0.70710678"
     inkscape:cx="139.04671"
     inkscape:cy="120.54557"
     inkscape:document-units="px"
     inkscape:current-layer="layer1"
     showgrid="false"
     units="px"
     inkscape:window-width="1500"
     inkscape:window-height="937"
     inkscape:window-x="-8"
     inkscape:window-y="-8"
     inkscape:window-maximized="1"
     inkscape:object-nodes="true" />
  <metadata
     id="metadata5581">
    <rdf:RDF>
      <cc:Work
         rdf:about="">
        <dc:format>image/svg+xml</dc:format>
        <dc:type
           rdf:resource="http://purl.org/dc/dcmitype/StillImage" />
        <dc:title>Management and monitoring</dc:title>
        <dc:creator>
          <cc:Agent>
            <dc:title>patterns &amp; practices</dc:title>
          </cc:Agent>
        </dc:creator>
      </cc:Work>
    </rdf:RDF>
  </metadata>
  <g
     inkscape:label="Layer 1"
     inkscape:groupmode="layer"
     id="layer1"
     transform="translate(0,-796.36216)">
    <path
       style="color:#000000;font-style:normal;font-variant:normal;font-weight:normal;font-stretch:normal;font-size:medium;line-height:normal;font-family:sans-serif;text-indent:0;text-align:start;text-decoration:none;text-decoration-line:none;text-decoration-style:solid;text-decoration-color:#000000;letter-spacing:normal;word-spacing:normal;text-transform:none;direction:ltr;block-progression:tb;writing-mode:lr-tb;baseline-shift:baseline;text-anchor:start;white-space:normal;clip-rule:nonzero;display:inline;overflow:visible;visibility:visible;opacity:1;isolation:auto;mix-blend-mode:normal;color-interpolation:sRGB;color-interpolation-filters:linearRGB;solid-color:#000000;solid-opacity:1;fill:#000000;fill-opacity:1;fill-rule:nonzero;stroke:none;stroke-width:15.17367077;stroke-linecap:butt;stroke-linejoin:miter;stroke-miterlimit:4;stroke-dasharray:none;stroke-dashoffset:0;stroke-opacity:1;color-rendering:auto;image-rendering:auto;shape-rendering:auto;text-rendering:auto;enable-background:accumulate"
       d="M 176.42383 48.097656 C 156.46818 48.097656 138.52585 57.007968 126.58594 71.005859 C 130.15579 74.208418 133.57176 78.019411 136.82617 82.316406 C 145.88281 70.744025 160.18986 63.271484 176.42383 63.271484 C 204.0849 63.271484 226.17188 84.951494 226.17188 111.67773 C 226.17188 138.40397 204.0849 160.08594 176.42383 160.08594 C 174.51758 160.08594 172.64089 159.97394 170.79297 159.77344 C 172.20531 165.04757 173.47496 170.22642 174.57031 175.21289 C 175.18782 175.23006 175.80231 175.25977 176.42383 175.25977 C 212.09354 175.25977 241.3457 146.80085 241.3457 111.67773 C 241.3457 76.554614 212.09354 48.097656 176.42383 48.097656 z "
       transform="translate(0,796.36216)"
       id="meter" />
    <g
       id="person"
       transform="translate(-0.70711056,-3.8890873)">
      <g
         id="g4232">
        <ellipse
           style="fill:#0072c6;fill-opacity:1;stroke:none;stroke-width:16;stroke-miterlimit:4;stroke-dasharray:none;stroke-opacity:1"
           id="path4146"
           cx="101.25"
           cy="908.36218"
           rx="34.25"
           ry="37.5" />
        <path
           style="fill:#0072c6;fill-opacity:1;fill-rule:evenodd;stroke:none;stroke-width:1px;stroke-linecap:butt;stroke-linejoin:miter;stroke-opacity:1"
           d="m 32,1020.8622 141.5,-0.2929 c 0,0 -3.04648,-62.55382 -27.35355,-68.85359 -24.30708,-6.29976 -33.43472,12.2929 -44.73224,12.2929 -11.297515,0 -21.750246,-22.90204 -46.803297,-11.91422 C 29.557861,963.08222 32,1020.8622 32,1020.8622 Z"
           id="path4148"
           inkscape:connector-curvature="0"
           sodipodi:nodetypes="cczzzc" />
      </g>
    </g>
    <g
       id="g4224"
       transform="translate(0.70710678,-2.1213203)">
      <g
         id="g4218">
        <path
           style="color:#000000;font-style:normal;font-variant:normal;font-weight:normal;font-stretch:normal;font-size:medium;line-height:normal;font-family:sans-serif;text-indent:0;text-align:start;text-decoration:none;text-decoration-line:none;text-decoration-style:solid;text-decoration-color:#000000;letter-spacing:normal;word-spacing:normal;text-transform:none;direction:ltr;block-progression:tb;writing-mode:lr-tb;baseline-shift:baseline;text-anchor:start;white-space:normal;clip-rule:nonzero;display:inline;overflow:visible;visibility:visible;opacity:1;isolation:auto;mix-blend-mode:normal;color-interpolation:sRGB;color-interpolation-filters:linearRGB;solid-color:#000000;solid-opacity:1;fill:#000000;fill-opacity:1;fill-rule:nonzero;stroke:none;stroke-width:16;stroke-linecap:butt;stroke-linejoin:miter;stroke-miterlimit:4;stroke-dasharray:none;stroke-dashoffset:0;stroke-opacity:1;color-rendering:auto;image-rendering:auto;shape-rendering:auto;text-rendering:auto;enable-background:accumulate"
           d="m 178.54492,75.087891 0,16.152343 c 4.02872,0.748503 7.66077,2.477857 10.64258,4.917969 l 11.2793,-11.28125 c -5.96457,-5.302173 -13.56979,-8.837335 -21.92188,-9.789062 z"
           transform="translate(0,796.36216)"
           id="path4150-3"
           inkscape:connector-curvature="0" />
        <path
           inkscape:connector-curvature="0"
           style="color:#000000;font-style:normal;font-variant:normal;font-weight:normal;font-stretch:normal;font-size:medium;line-height:normal;font-family:sans-serif;text-indent:0;text-align:start;text-decoration:none;text-decoration-line:none;text-decoration-style:solid;text-decoration-color:#000000;letter-spacing:normal;word-spacing:normal;text-transform:none;direction:ltr;block-progression:tb;writing-mode:lr-tb;baseline-shift:baseline;text-anchor:start;white-space:normal;clip-rule:nonzero;display:inline;overflow:visible;visibility:visible;opacity:1;isolation:auto;mix-blend-mode:normal;color-interpolation:sRGB;color-interpolation-filters:linearRGB;solid-color:#000000;solid-opacity:1;fill:#000000;fill-opacity:1;fill-rule:nonzero;stroke:none;stroke-width:16;stroke-linecap:butt;stroke-linejoin:miter;stroke-miterlimit:4;stroke-dasharray:none;stroke-dashoffset:0;stroke-opacity:1;color-rendering:auto;image-rendering:auto;shape-rendering:auto;text-rendering:auto;enable-background:accumulate"
           d="m 150.78315,882.07238 12.12989,10.66602 c 3.22243,-2.53118 6.91949,-4.11677 10.72094,-4.74471 l -1.0237,-15.91984 c -7.92039,0.97797 -15.59721,4.35484 -21.82713,9.99853 z"
           id="path4150-3-6"
           inkscape:transform-center-x="0.8904577"
           inkscape:transform-center-y="-1.0788266" />
        <path
           inkscape:connector-curvature="0"
           style="color:#000000;font-style:normal;font-variant:normal;font-weight:normal;font-stretch:normal;font-size:medium;line-height:normal;font-family:sans-serif;text-indent:0;text-align:start;text-decoration:none;text-decoration-line:none;text-decoration-style:solid;text-decoration-color:#000000;letter-spacing:normal;word-spacing:normal;text-transform:none;direction:ltr;block-progression:tb;writing-mode:lr-tb;baseline-shift:baseline;text-anchor:start;white-space:normal;clip-rule:nonzero;display:inline;overflow:visible;visibility:visible;opacity:1;isolation:auto;mix-blend-mode:normal;color-interpolation:sRGB;color-interpolation-filters:linearRGB;solid-color:#000000;solid-opacity:1;fill:#000000;fill-opacity:1;fill-rule:nonzero;stroke:none;stroke-width:16;stroke-linecap:butt;stroke-linejoin:miter;stroke-miterlimit:4;stroke-dasharray:none;stroke-dashoffset:0;stroke-opacity:1;color-rendering:auto;image-rendering:auto;shape-rendering:auto;text-rendering:auto;enable-background:accumulate"
           d="M 204.71449,885.13921 193.17956,896.446 c 2.2856,3.40101 3.59309,7.20534 3.93781,11.04285 l 15.95194,0.15795 c -0.3888,-7.97107 -3.18794,-15.87686 -8.35482,-22.50759 z"
           id="path4150-3-5" />
        <path
           inkscape:connector-curvature="0"
           style="color:#000000;font-style:normal;font-variant:normal;font-weight:normal;font-stretch:normal;font-size:medium;line-height:normal;font-family:sans-serif;text-indent:0;text-align:start;text-decoration:none;text-decoration-line:none;text-decoration-style:solid;text-decoration-color:#000000;letter-spacing:normal;word-spacing:normal;text-transform:none;direction:ltr;block-progression:tb;writing-mode:lr-tb;baseline-shift:baseline;text-anchor:start;white-space:normal;clip-rule:nonzero;display:inline;overflow:visible;visibility:visible;opacity:1;isolation:auto;mix-blend-mode:normal;color-interpolation:sRGB;color-interpolation-filters:linearRGB;solid-color:#000000;solid-opacity:1;fill:#000000;fill-opacity:1;fill-rule:nonzero;stroke:none;stroke-width:16;stroke-linecap:butt;stroke-linejoin:miter;stroke-miterlimit:4;stroke-dasharray:none;stroke-dashoffset:0;stroke-opacity:1;color-rendering:auto;image-rendering:auto;shape-rendering:auto;text-rendering:auto;enable-background:accumulate"
           d="m 138.49598,911.00472 16.1188,-1.04045 c 0.48744,-4.06858 1.97924,-7.80447 4.22221,-10.93726 l -11.98438,-10.52919 c -4.90695,6.29371 -7.94488,14.11086 -8.35663,22.5069 z"
           id="path4150-3-6-2"
           inkscape:transform-center-x="-0.4655823"
           inkscape:transform-center-y="-3.5404416" />
      </g>
      <path
         inkscape:connector-curvature="0"
         id="path4213"
         d="m 176.47825,905.10811 a 10.429825,10.429825 0 0 0 -10.42968,10.42968 10.429825,10.429825 0 0 0 10.42968,10.42969 10.429825,10.429825 0 0 0 9.92774,-7.24805 l 22.42187,0 0,-6.36523 -22.42968,0 a 10.429825,10.429825 0 0 0 -9.91993,-7.24609 z"
         style="fill:#000000;fill-opacity:1;stroke:none;stroke-width:16;stroke-miterlimit:4;stroke-dasharray:none;stroke-opacity:1" />
    </g>
  </g>
</svg>
